assets/images/member/companies.svg

<svg height="14" viewBox="0 0 14 14" width="14" xmlns="http://www.w3.org/2000/svg"><g fill="none"><path d="m5.610783.10194056c-.97693895-.31625259-2.03896518.12364736-2.50615412 1.03808999l-.56165835 1.09934559c-.0667343.1306247-.17296969.23686009-.30359439.30359439l-1.09934559.56165835c-.91444263.46718894-1.35434258 1.52921517-1.03808999 2.50615412l.38020571 1.17450708c.04517496.13954677.04517496.28982791 0 .42937469l-.38020571 1.17450707c-.31625259.97696683.12364736 2.03897216 1.03808999 2.50619596l1.09934559.5616026c.1306247.0667761.23686009.1730045.30359439.3036292l.56165835 1.0993665c.46718894.9144426 1.52921517 1.3543426 2.50615412 1.038097l1.17450708-.3802336c.13954677-.045168.28982791-.045168.42937469 0l1.17450707.3802336c.97696683.3162456 2.03897216-.1236544 2.50619596-1.038097l.5616026-1.0993665c.0667761-.1306247.1730045-.2368531.3036292-.3036292l1.0993665-.5616026c.9144426-.4672238 1.3543426-1.52922913 1.038097-2.50619596l-.3802336-1.17450707c-.045168-.13954678-.045168-.28982792 0-.42937469l.3802336-1.17450708c.3162456-.97693895-.1236544-2.03896518-1.038097-2.50615412l-1.0993665-.56165835c-.1306247-.0667343-.2368531-.17296969-.3036292-.30359439l-.5616026-1.09934559c-.4672238-.91444263-1.52922913-1.35434258-2.50619596-1.03808999l-1.17450707.38020571c-.13954678.04516799-.28982792.04517496-.42937469 0z" fill="#a56b3b"/><path d="m3.84022579 6.33789698c.27219903-.27221442.71353333-.27222691.98574776-.00002788l.00002178.00002178 1.33719903 1.33724159c.078102.07810773.20473499.07810974.2828411.00000612.00000054-.00000054.00000108-.00000108 0-.00000325l3.30876703-3.30873779c.27220941-.27220703.71354611-.27220528.98575341.00000392.272207.27220894.2722055.71354527-.0000035.98575229-.0000001.00000012-.0000002.00000023-.0000003.00000035l-3.72882885 3.72879718c-.3905293.39051499-1.02369003.39051476-1.41421906-.0000005l-1.75726271-1.75725029c-.2722217-.27221977-.27222872-.71357509-.00001569-.98580352z" fill="#fff"/></g></svg>

<?xml version="1.0" encoding="UTF-8"?>
<svg width="14px" height="14px" viewBox="0 0 14 14" version="1.1" xmlns="http://www.w3.org/2000/svg" xmlns:xlink="http://www.w3.org/1999/xlink">
    <title>切图</title>
    <g id="会员" stroke="none" stroke-width="1" fill="none" fill-rule="evenodd">
        <g id="切图" transform="translate(-733.000000, -64.000000)" fill-rule="nonzero">
            <g id="编组" transform="translate(733.000000, 64.000000)">
                <path d="M5.610783,0.101940557 C4.63384405,-0.214312027 3.57181782,0.225587921 3.10462888,1.14003055 L2.54297053,2.23937614 C2.47623623,2.37000084 2.37000084,2.47623623 2.23937614,2.54297053 L1.14003055,3.10462888 C0.225587921,3.57181782 -0.214312027,4.63384405 0.101940557,5.610783 L0.48214627,6.78529008 C0.527321228,6.92483685 0.527321228,7.07511799 0.48214627,7.21466477 L0.101940557,8.38917184 C-0.214312027,9.36613867 0.225587921,10.428144 1.14003055,10.8953678 L2.23937614,11.4569704 C2.37000084,11.5237465 2.47623623,11.6299749 2.54297053,11.7605996 L3.10462888,12.8599661 C3.57181782,13.7744087 4.63384405,14.2143087 5.610783,13.8980631 L6.78529008,13.5178295 C6.92483685,13.4726615 7.07511799,13.4726615 7.21466477,13.5178295 L8.38917184,13.8980631 C9.36613867,14.2143087 10.428144,13.7744087 10.8953678,12.8599661 L11.4569704,11.7605996 C11.5237465,11.6299749 11.6299749,11.5237465 11.7605996,11.4569704 L12.8599661,10.8953678 C13.7744087,10.428144 14.2143087,9.36613867 13.8980631,8.38917184 L13.5178295,7.21466477 C13.4726615,7.07511799 13.4726615,6.92483685 13.5178295,6.78529008 L13.8980631,5.610783 C14.2143087,4.63384405 13.7744087,3.57181782 12.8599661,3.10462888 L11.7605996,2.54297053 C11.6299749,2.47623623 11.5237465,2.37000084 11.4569704,2.23937614 L10.8953678,1.14003055 C10.428144,0.225587921 9.36613867,-0.214312027 8.38917184,0.101940557 L7.21466477,0.48214627 C7.07511799,0.527314257 6.92483685,0.527321228 6.78529008,0.48214627 L5.610783,0.101940557 Z" id="形状" fill="#A56B3B"></path>
                <path d="M3.84022579,6.33789698 C4.11242482,6.06568256 4.55375912,6.06567007 4.82597355,6.3378691 C4.82598081,6.33787636 4.82598807,6.33788362 4.82599533,6.33789088 L6.16319436,7.67513247 C6.24129636,7.7532402 6.36792935,7.75324221 6.44603546,7.67513859 C6.446036,7.67513805 6.44603654,7.67513751 6.44603546,7.67513534 L9.75480249,4.36639755 C10.0270119,4.09419052 10.4683486,4.09419227 10.7405559,4.36640147 C11.0127629,4.63861041 11.0127614,5.07994674 10.7405524,5.35215376 C10.7405523,5.35215388 10.7405522,5.35215399 10.7405521,5.35215411 L7.01172325,9.08095129 C6.62119395,9.47146628 5.98803322,9.47146605 5.59750419,9.08095079 L3.84024148,7.3237005 C3.56801978,7.05148073 3.56801276,6.61012541 3.84022579,6.33789698 Z" id="路径" fill="#FFFFFF"></path>
            </g>
        </g>
    </g>
</svg>
